img/bk3-UI-designer.svg

<?xml version="1.0" encoding="utf-8"?>
<!-- Generator: Adobe Illustrator 27.0.1, SVG Export Plug-In . SVG Version: 6.00 Build 0)  -->
<svg version="1.1" id="圖層_1" xmlns="http://www.w3.org/2000/svg" xmlns:xlink="http://www.w3.org/1999/xlink" x="0px" y="0px"
	 viewBox="0 0 252 312" style="enable-background:new 0 0 252 312;" xml:space="preserve">
<style type="text/css">
	.st0{fill:#FFC300;}
	.st1{fill:#E8E8E8;}
</style>
<polygon class="st0" points="228,204 228,192 216,192 216,180 204,180 204,168 192,168 180,168 180,72 168,72 168,60 168,48 156,48 
	156,36 144,36 144,24 132,24 132,12 120,12 108,12 96,12 84,12 72,12 60,12 60,24 48,24 48,36 36,36 36,48 24,48 24,60 24,72 12,72 
	12,300 180,300 180,204 192,204 192,216 204,216 204,228 216,228 228,228 240,228 240,216 240,204 "/>
<path d="M180,204h12v12h-12V204z"/>
<path d="M180,216h12v12h-12V216z"/>
<path d="M180,228h12v12h-12V228z"/>
<path d="M180,240h12v12h-12V240z"/>
<path d="M180,252h12v12h-12V252z"/>
<path d="M180,264h12v12h-12V264z"/>
<path d="M180,276h12v12h-12V276z"/>
<path d="M180,288h12v12h-12V288z"/>
<polygon points="0,60 0,288 0,291.7 0,300 12,300 12,291.7 12,288 12,60 "/>
<path d="M12,60h12v12H12V60z"/>
<path d="M12,48h12v12H12V48z"/>
<path d="M12,36h12v12H12V36z"/>
<path d="M24,36h12v12H24V36z"/>
<path d="M24,24h12v12H24V24z"/>
<path d="M36,24h12v12H36V24z"/>
<path d="M36,12h12v12H36V12z"/>
<path d="M60,0h12v12H60V0z"/>
<path d="M48,12h12v12H48V12z"/>
<path d="M48,0h12v12H48V0z"/>
<path d="M72,0h12v12H72V0z"/>
<path d="M84,0h12v12H84V0z"/>
<path d="M96,0h12v12H96V0z"/>
<path d="M108,0h12v12h-12V0z"/>
<path d="M120,0h12v12h-12V0z"/>
<path d="M132,0h12v12h-12V0z"/>
<path d="M132,12h12v12h-12V12z"/>
<path d="M144,12h12v12h-12V12z"/>
<path d="M144,24h12v12h-12V24z"/>
<path d="M156,24h12v12h-12V24z"/>
<path d="M156,36h12v12h-12V36z"/>
<polygon points="192,156 192,144 192,132 192,120 192,108 192,96 192,84 192,72 192,66 192,60 186,60 180,60 180,48 180,36 168,36 
	168,48 168,60 168,70.3 168,72 180,72 180,84 180,96 180,108 180,120 180,132 180,144 180,156 180,162 180,168 204,168 204,156 "/>
<path d="M36,300h12v12H36V300z"/>
<path d="M24,300h12v12H24V300z"/>
<path d="M12,300h12v12H12V300z"/>
<path d="M48,300h12v12H48V300z"/>
<path d="M60,300h12v12H60V300z"/>
<path d="M72,300h12v12H72V300z"/>
<path d="M84,300h12v12H84V300z"/>
<path d="M96,300h12v12H96V300z"/>
<path d="M108,300h12v12h-12V300z"/>
<path d="M120,300h12v12h-12V300z"/>
<path d="M132,300h12v12h-12V300z"/>
<path d="M144,300h12v12h-12V300z"/>
<path d="M156,300h12v12h-12V300z"/>
<path d="M168,300h12v12h-12V300z"/>
<g>
	<polygon class="st1" points="72,78 60,78 48,78 48,90 36,90 36,102 36,114 36,126 48,126 48,138 60,138 72,138 72,126 84,126 
		84,114 84,102 84,90 72,90 	"/>
	<polygon class="st1" points="144,90 144,78 132,78 120,78 120,90 108,90 108,102 108,114 108,126 120,126 120,138 132,138 144,138 
		144,126 156,126 156,114 156,102 156,90 	"/>
</g>
<path d="M132,90h24v24h-24V90z"/>
<path d="M204,168h12v12h-12V168z"/>
<path d="M216,180h12v12h-12V180z"/>
<path d="M228,192h12v12h-12V192z"/>
<path d="M240,204h12v12h-12V204z"/>
<path d="M240,216h12v12h-12V216z"/>
<path d="M240,228h12v12h-12V228z"/>
<path d="M228,228h12v12h-12V228z"/>
<path d="M216,228h12v12h-12V228z"/>
<path d="M204,228h12v12h-12V228z"/>
<path d="M192,216h12v12h-12V216z"/>
<path d="M64,90h24v24H64V90z"/>
</svg>

<svg width="252" height="312" viewBox="0 0 252 312" fill="none" xmlns="http://www.w3.org/2000/svg">
<path d="M0 216H12V228H0V216Z" fill="black"/>
<path d="M0 228H12V240H0V228Z" fill="black"/>
<path d="M0 240H12V252H0V240Z" fill="black"/>
<path d="M0 252H12V264H0V252Z" fill="black"/>
<path d="M0 264H12V276H0V264Z" fill="black"/>
<path d="M0 276H12V288H0V276Z" fill="black"/>
<path d="M0 288H12V300H0V288Z" fill="black"/>
<path d="M0 204H12V216H0V204Z" fill="black"/>
<path d="M180 204H192V216H180V204Z" fill="black"/>
<path d="M180 216H192V228H180V216Z" fill="black"/>
<path d="M180 228H192V240H180V228Z" fill="black"/>
<path d="M180 240H192V252H180V240Z" fill="black"/>
<path d="M180 252H192V264H180V252Z" fill="black"/>
<path d="M180 264H192V276H180V264Z" fill="black"/>
<path d="M180 276H192V288H180V276Z" fill="black"/>
<path d="M180 288H192V300H180V288Z" fill="black"/>
<path d="M0 192H12V204H0V192Z" fill="black"/>
<path d="M180 192H192V204H180V192Z" fill="black"/>
<path d="M0 180H12V192H0V180Z" fill="black"/>
<path d="M180 180H192V192H180V180Z" fill="black"/>
<path d="M0 168H12V180H0V168Z" fill="black"/>
<path d="M180 168H192V180H180V168Z" fill="black"/>
<path d="M0 156H12V168H0V156Z" fill="black"/>
<path d="M180 156H192V168H180V156Z" fill="black"/>
<path d="M0 144H12V156H0V144Z" fill="black"/>
<path d="M180 144H192V156H180V144Z" fill="black"/>
<path d="M0 132H12V144H0V132Z" fill="black"/>
<path d="M180 132H192V144H180V132Z" fill="black"/>
<path d="M0 120H12V132H0V120Z" fill="black"/>
<path d="M180 120H192V132H180V120Z" fill="black"/>
<path d="M0 108H12V120H0V108Z" fill="black"/>
<path d="M180 108H192V120H180V108Z" fill="black"/>
<path d="M0 96H12V108H0V96Z" fill="black"/>
<path d="M180 96H192V108H180V96Z" fill="black"/>
<path d="M0 84H12V96H0V84Z" fill="black"/>
<path d="M180 84H192V96H180V84Z" fill="black"/>
<path d="M0 72H12V84H0V72Z" fill="black"/>
<path d="M180 72H192V84H180V72Z" fill="black"/>
<path d="M0 60H12V72H0V60Z" fill="black"/>
<path d="M12 60H24V72H12V60Z" fill="black"/>
<path d="M48 60H60V72H48V60Z" fill="#FFC300"/>
<path d="M24 60H36V72H24V60Z" fill="#FFC300"/>
<path d="M48 48H60V60H48V48Z" fill="#FFC300"/>
<path d="M24 48H36V60H24V48Z" fill="#FFC300"/>
<path d="M60 60H72V72H60V60Z" fill="#FFC300"/>
<path d="M60 48H72V60H60V48Z" fill="#FFC300"/>
<path d="M36 48H48V60H36V48Z" fill="#FFC300"/>
<path d="M36 60H48V72H36V60Z" fill="#FFC300"/>
<path d="M60 36H72V48H60V36Z" fill="#FFC300"/>
<path d="M36 36H48V48H36V36Z" fill="#FFC300"/>
<path d="M72 60H84V72H72V60Z" fill="#FFC300"/>
<path d="M72 48H84V60H72V48Z" fill="#FFC300"/>
<path d="M72 36H84V48H72V36Z" fill="#FFC300"/>
<path d="M48 36H60V48H48V36Z" fill="#FFC300"/>
<path d="M72 24H84V36H72V24Z" fill="#FFC300"/>
<path d="M48 24H60V36H48V24Z" fill="#FFC300"/>
<path d="M84 60H96V72H84V60Z" fill="#FFC300"/>
<path d="M84 48H96V60H84V48Z" fill="#FFC300"/>
<path d="M84 36H96V48H84V36Z" fill="#FFC300"/>
<path d="M84 24H96V36H84V24Z" fill="#FFC300"/>
<path d="M60 24H72V36H60V24Z" fill="#FFC300"/>
<path d="M120 12H132V24H120V12Z" fill="#FFC300"/>
<path d="M108 12H120V24H108V12Z" fill="#FFC300"/>
<path d="M96 12H108V24H96V12Z" fill="#FFC300"/>
<path d="M72 12H84V24H72V12Z" fill="#FFC300"/>
<path d="M84 12H96V24H84V12Z" fill="#FFC300"/>
<path d="M60 12H72V24H60V12Z" fill="#FFC300"/>
<path d="M96 60H108V72H96V60Z" fill="#FFC300"/>
<path d="M96 48H108V60H96V48Z" fill="#FFC300"/>
<path d="M96 36H108V48H96V36Z" fill="#FFC300"/>
<path d="M96 24H108V36H96V24Z" fill="#FFC300"/>
<path d="M108 60H120V72H108V60Z" fill="#FFC300"/>
<path d="M108 48H120V60H108V48Z" fill="#FFC300"/>
<path d="M108 36H120V48H108V36Z" fill="#FFC300"/>
<path d="M108 24H120V36H108V24Z" fill="#FFC300"/>
<path d="M120 60H132V72H120V60Z" fill="#FFC300"/>
<path d="M120 48H132V60H120V48Z" fill="#FFC300"/>
<path d="M120 36H132V48H120V36Z" fill="#FFC300"/>
<path d="M120 24H132V36H120V24Z" fill="#FFC300"/>
<path d="M132 60H144V72H132V60Z" fill="#FFC300"/>
<path d="M132 48H144V60H132V48Z" fill="#FFC300"/>
<path d="M132 36H144V48H132V36Z" fill="#FFC300"/>
<path d="M132 24H144V36H132V24Z" fill="#FFC300"/>
<path d="M144 60H156V72H144V60Z" fill="#FFC300"/>
<path d="M144 48H156V60H144V48Z" fill="#FFC300"/>
<path d="M144 36H156V48H144V36Z" fill="#FFC300"/>
<path d="M156 60H168V72H156V60Z" fill="#FFC300"/>
<path d="M156 48H168V60H156V48Z" fill="#FFC300"/>
<path d="M12 48H24V60H12V48Z" fill="black"/>
<path d="M12 36H24V48H12V36Z" fill="black"/>
<path d="M24 36H36V48H24V36Z" fill="black"/>
<path d="M24 24H36V36H24V24Z" fill="black"/>
<path d="M36 24H48V36H36V24Z" fill="black"/>
<path d="M36 12H48V24H36V12Z" fill="black"/>
<path d="M60 0H72V12H60V0Z" fill="black"/>
<path d="M48 12H60V24H48V12Z" fill="black"/>
<path d="M48 0H60V12H48V0Z" fill="black"/>
<path d="M72 0H84V12H72V0Z" fill="black"/>
<path d="M84 0H96V12H84V0Z" fill="black"/>
<path d="M96 0H108V12H96V0Z" fill="black"/>
<path d="M108 0H120V12H108V0Z" fill="black"/>
<path d="M120 0H132V12H120V0Z" fill="black"/>
<path d="M132 0H144V12H132V0Z" fill="black"/>
<path d="M132 12H144V24H132V12Z" fill="black"/>
<path d="M144 12H156V24H144V12Z" fill="black"/>
<path d="M144 24H156V36H144V24Z" fill="black"/>
<path d="M156 24H168V36H156V24Z" fill="black"/>
<path d="M156 36H168V48H156V36Z" fill="black"/>
<path d="M168 36H180V48H168V36Z" fill="black"/>
<path d="M168 48H180V60H168V48Z" fill="black"/>
<path d="M168 60H180V72H168V60Z" fill="black"/>
<path d="M180 60H192V72H180V60Z" fill="black"/>
<path d="M36 300H48V312H36V300Z" fill="black"/>
<path d="M24 300H36V312H24V300Z" fill="black"/>
<path d="M12 300H24V312H12V300Z" fill="black"/>
<path d="M48 300H60V312H48V300Z" fill="black"/>
<path d="M60 300H72V312H60V300Z" fill="black"/>
<path d="M72 300H84V312H72V300Z" fill="black"/>
<path d="M84 300H96V312H84V300Z" fill="black"/>
<path d="M96 300H108V312H96V300Z" fill="black"/>
<path d="M108 300H120V312H108V300Z" fill="black"/>
<path d="M120 300H132V312H120V300Z" fill="black"/>
<path d="M132 300H144V312H132V300Z" fill="black"/>
<path d="M144 300H156V312H144V300Z" fill="black"/>
<path d="M156 300H168V312H156V300Z" fill="black"/>
<path d="M168 300H180V312H168V300Z" fill="black"/>
<path d="M12 72H180V300H12V72Z" fill="#FFC300"/>
<path d="M48 90H60V102H48V90Z" fill="#E8E8E8"/>
<path d="M48 78H60V90H48V78Z" fill="#E8E8E8"/>
<path d="M60 90H72V102H60V90Z" fill="#E8E8E8"/>
<path d="M60 102H72V114H60V102Z" fill="#E8E8E8"/>
<path d="M48 102H60V114H48V102Z" fill="#E8E8E8"/>
<path d="M36 102H48V114H36V102Z" fill="#E8E8E8"/>
<path d="M60 114H72V126H60V114Z" fill="#E8E8E8"/>
<path d="M48 114H60V126H48V114Z" fill="#E8E8E8"/>
<path d="M36 114H48V126H36V114Z" fill="#E8E8E8"/>
<path d="M48 126H60V138H48V126Z" fill="#E8E8E8"/>
<path d="M60 78H72V90H60V78Z" fill="#E8E8E8"/>
<path d="M72 90H84V102H72V90Z" fill="#E8E8E8"/>
<path d="M72 102H84V114H72V102Z" fill="#E8E8E8"/>
<path d="M72 114H84V126H72V114Z" fill="#E8E8E8"/>
<path d="M60 126H72V138H60V126Z" fill="#E8E8E8"/>
<path d="M36 90H48V102H36V90Z" fill="#E8E8E8"/>
<path d="M76 90H88V102H76V90Z" fill="black"/>
<path d="M76 102H88V114H76V102Z" fill="black"/>
<path d="M64 90H76V102H64V90Z" fill="black"/>
<path d="M64 102H76V114H64V102Z" fill="black"/>
<path d="M120 90H132V102H120V90Z" fill="#E8E8E8"/>
<path d="M120 78H132V90H120V78Z" fill="#E8E8E8"/>
<path d="M132 90H144V102H132V90Z" fill="#E8E8E8"/>
<path d="M132 102H144V114H132V102Z" fill="#E8E8E8"/>
<path d="M120 102H132V114H120V102Z" fill="#E8E8E8"/>
<path d="M108 102H120V114H108V102Z" fill="#E8E8E8"/>
<path d="M132 114H144V126H132V114Z" fill="#E8E8E8"/>
<path d="M120 114H132V126H120V114Z" fill="#E8E8E8"/>
<path d="M108 114H120V126H108V114Z" fill="#E8E8E8"/>
<path d="M120 126H132V138H120V126Z" fill="#E8E8E8"/>
<path d="M132 78H144V90H132V78Z" fill="#E8E8E8"/>
<path d="M144 90H156V102H144V90Z" fill="#E8E8E8"/>
<path d="M144 102H156V114H144V102Z" fill="#E8E8E8"/>
<path d="M144 114H156V126H144V114Z" fill="#E8E8E8"/>
<path d="M132 126H144V138H132V126Z" fill="#E8E8E8"/>
<path d="M108 90H120V102H108V90Z" fill="#E8E8E8"/>
<path d="M144 90H156V102H144V90Z" fill="black"/>
<path d="M144 102H156V114H144V102Z" fill="black"/>
<path d="M132 90H144V102H132V90Z" fill="black"/>
<path d="M132 102H144V114H132V102Z" fill="black"/>
<path d="M192 156H204V168H192V156Z" fill="black"/>
<path d="M204 168H216V180H204V168Z" fill="black"/>
<path d="M216 180H228V192H216V180Z" fill="black"/>
<path d="M228 192H240V204H228V192Z" fill="black"/>
<path d="M240 204H252V216H240V204Z" fill="black"/>
<path d="M240 216H252V228H240V216Z" fill="black"/>
<path d="M240 228H252V240H240V228Z" fill="black"/>
<path d="M228 228H240V240H228V228Z" fill="black"/>
<path d="M216 228H228V240H216V228Z" fill="black"/>
<path d="M204 228H216V240H204V228Z" fill="black"/>
<path d="M180 168H192V180H180V168Z" fill="#FFC300"/>
<path d="M192 180H204V192H192V180Z" fill="#FFC300"/>
<path d="M192 192H204V204H192V192Z" fill="#FFC300"/>
<path d="M192 168H204V180H192V168Z" fill="#FFC300"/>
<path d="M204 180H216V192H204V180Z" fill="#FFC300"/>
<path d="M204 192H216V204H204V192Z" fill="#FFC300"/>
<path d="M216 192H228V204H216V192Z" fill="#FFC300"/>
<path d="M216 204H228V216H216V204Z" fill="#FFC300"/>
<path d="M228 204H240V216H228V204Z" fill="#FFC300"/>
<path d="M228 216H240V228H228V216Z" fill="#FFC300"/>
<path d="M204 216H216V228H204V216Z" fill="#FFC300"/>
<path d="M216 216H228V228H216V216Z" fill="#FFC300"/>
<path d="M204 204H216V216H204V204Z" fill="#FFC300"/>
<path d="M192 204H204V216H192V204Z" fill="#FFC300"/>
<path d="M180 180H192V192H180V180Z" fill="#FFC300"/>
<path d="M180 192H192V204H180V192Z" fill="#FFC300"/>
<path d="M168 192H180V204H168V192Z" fill="black"/>
<path d="M168 156H180V168H168V156Z" fill="black"/>
<path d="M192 216H204V228H192V216Z" fill="black"/>
</svg>
